; generated by SuperSlicer 2.3.57 on 2022-07-01 at 23:30:42 UTC


;
;

;
;
; 

; external perimeters extrusion width = 0.45mm
; perimeters extrusion width = 0.45mm
; infill extrusion width = 0.45mm
; solid infill extrusion width = 0.45mm
; top infill extrusion width = 0.40mm
; first layer extrusion width = 0.56mm


M73 P0 R3
M204 P8000 T8000 ; sets acceleration (P, T), mm/sec^2
;TYPE:Custom
M117 Initializing
; Set coordinate modes
G90 ; use absolute coordinates
M83 ; extruder relative mode
; Reset speed and extrusion rates
M220 S100 ; reset speed
; Set initial warmup temps
M117 Nozzle preheat
M104 S205 ; preheat extruder to no ooze temp
M140 S70 ; set bed temp
M190 S70 ; wait for bed final temp
; Home
M117 Homing
G28 ; home all with default mesh bed level
; Final warmup routine
M117 Final warmup
M104 S205 ; set extruder final temp
M109 S205 ; wait for extruder final temp
M190 S70 ; wait for bed final temp
BED_MESH_PROFILE LOAD=default
; Prime line routine
M117 Printing prime line
G92 E0.0; reset extrusion distance
G1 X-54.672 Y-95.203 Z0.5 F4000; go outside print area
G92 E0.0; reset extrusion distance
M73 P1 R3
G1 E2 F1000 ; de-retract and push ooze
G3 X38.904 Y-102.668 I54.672 J95.105 E20.999 F1500
G3 X54.671 Y-95.203 I-38.815 J102.373 E5.45800 F1500
G92 E0.0
G1 E-1 F3000 ; retract 1mm
G1 X52.931 Y-96.185 F1000 ; wipe
G1 X50.985 Y-97.231 F1000 ; wipe
G1 X49.018 Y-98.238 F1000 ; wipe
G1 X0 Y-109.798 F1000
G1 E1 F1500; de-retract
G92 E0.0 ; reset extrusion distance
; Final print adjustments
M117 Preparing to print
;M82 ; extruder absolute mode

M107
G21 ; set units to millimeters
G90 ; use absolute coordinates
M83 ; use relative distances for extrusion
;LAYER_CHANGE
;Z:0.2
;HEIGHT:0.2
G92 E0 ;reset extrusion distance
G1 Z0.2 F10800
G10 ; retract
M204 S4000
G1 X26.697 Y-0.019
G11 ; unretract
;TYPE:Skirt
;WIDTH:0.52
G1 F1500
G1 X26.682 Y-20.669 E0.81917
G1 X26.447 Y-21.88 E0.04895
G1 X25.994 Y-23.028 E0.04895
M73 P2 R3
G1 X25.339 Y-24.074 E0.04895
G1 X24.508 Y-24.977 E0.04869
G1 X23.522 Y-25.718 E0.04895
G1 X22.422 Y-26.264 E0.04869
G1 X21.235 Y-26.601 E0.04895
G1 X20.006 Y-26.716 E0.04895
G1 X-20.35 Y-26.706 E1.60091
G1 X-21.695 Y-26.498 E0.054
G1 X-22.965 Y-26.026 E0.05375
G1 X-24.114 Y-25.308 E0.05375
G1 X-25.1 Y-24.369 E0.054
G1 X-25.761 Y-23.45 E0.0449
G1 X-26.257 Y-22.44 E0.04465
M73 P3 R3
G1 X-26.576 Y-21.361 E0.04465
G1 X-26.711 Y-20.243 E0.04465
G1 X-26.715 Y20.1 E1.6004
G1 X-26.543 Y21.515 E0.05653
G1 X-26.078 Y22.855 E0.05628
G1 X-25.343 Y24.069 E0.05628
G1 X-24.369 Y25.1 E0.05628
G1 X-23.45 Y25.761 E0.0449
G1 X-22.44 Y26.257 E0.04465
G1 X-21.361 Y26.576 E0.04465
G1 X-20.243 Y26.711 E0.04465
G1 X20.1 Y26.715 E1.6004
M73 P4 R3
G1 X21.515 Y26.543 E0.05653
G1 X22.855 Y26.078 E0.05628
M73 P5 R3
G1 X24.069 Y25.343 E0.05628
M73 P6 R3
G1 X25.1 Y24.369 E0.05628
G1 X25.761 Y23.45 E0.0449
G1 X26.257 Y22.44 E0.04465
G1 X26.576 Y21.361 E0.04465
G1 X26.711 Y20.237 E0.0449
G1 X26.697 Y0.041 E0.80116
M73 P7 R3
G1 X26.46 Y0.041 F10800
M204 S1000
G1 X26.223 Y0.041
G1 F1500
G1 X26.212 Y-20.58 E0.81802
G1 X25.999 Y-21.712 E0.04571
G1 X25.582 Y-22.786 E0.04571
G1 X24.978 Y-23.76 E0.04547
M73 P8 R3
G1 X24.201 Y-24.612 E0.04571
G1 X23.287 Y-25.302 E0.04547
M73 P8 R2
G1 X22.256 Y-25.817 E0.04571
G1 X21.147 Y-26.132 E0.04571
G1 X20.006 Y-26.239 E0.04547
G1 X-20.303 Y-26.231 E1.59903
G1 X-21.551 Y-26.043 E0.0501
G1 X-22.731 Y-25.609 E0.04985
G1 X-23.8 Y-24.948 E0.04985
M73 P9 R2
G1 X-24.718 Y-24.081 E0.0501
G1 X-25.341 Y-23.224 E0.04205
G1 X-25.808 Y-22.279 E0.04181
G1 X-26.109 Y-21.262 E0.04205
G1 X-26.235 Y-20.216 E0.04181
G1 X-26.238 Y20.081 E1.59854
G1 X-26.082 Y21.389 E0.05229
G1 X-25.657 Y22.631 E0.05204
G1 X-24.982 Y23.755 E0.05204
M73 P10 R2
G1 X-24.081 Y24.718 E0.05229
G1 X-23.224 Y25.341 E0.04205
G1 X-22.279 Y25.808 E0.04181
G1 X-21.262 Y26.109 E0.04205
G1 X-20.216 Y26.235 E0.04181
G1 X20.081 Y26.238 E1.59854
G1 X21.389 Y26.082 E0.05229
G1 X22.631 Y25.657 E0.05204
G1 X23.755 Y24.982 E0.05204
M73 P11 R2
G1 X24.718 Y24.081 E0.05229
G1 X25.341 Y23.224 E0.04205
G1 X25.81 Y22.273 E0.04205
G1 X26.111 Y21.256 E0.04205
G1 X26.235 Y20.21 E0.04181
G1 X26.223 Y0.101 E0.79769
G10 ; retract
M204 S4000
G1 X22.972 Y9.911 F10800
M204 S1000
G1 X19.72 Y19.72
G11 ; unretract
;TYPE:External perimeter
;WIDTH:0.56
M73 P12 R2
G1 F1500
G1 X-19.72 Y19.72 E1.69574
G1 X-19.72 Y-19.72 E1.69574
G1 X19.72 Y-19.72 E1.69574
G1 X19.72 Y19.66 E1.69316
;WIPE_START
M204 S3700
M73 P13 R2
G1 X19.374 Y19.52 F10800
;WIPE_END
G10 ; retract
M204 S4000
G1 X-0.096 Y19.115
M204 S1000
G1 X-19.565 Y18.71
G11 ; unretract
;TYPE:Solid infill
;WIDTH:0.558294
G1 F1500
G1 X-18.469 Y19.343 E0.05423
G1 X-17.435 Y19.343 E0.04433
G1 X-19.343 Y18.241 E0.09441
G1 X-19.343 Y17.644 E0.02559
G1 X-16.401 Y19.343 E0.14559
M73 P14 R2
G1 X-15.367 Y19.343 E0.04433
G1 X-19.343 Y17.047 E0.19678
G1 X-19.343 Y16.45 E0.02559
G1 X-14.333 Y19.343 E0.24797
G1 X-13.299 Y19.343 E0.04433
G1 X-19.343 Y15.853 E0.29915
G1 X-19.343 Y15.256 E0.02559
G1 X-12.264 Y19.343 E0.35034
G1 X-11.23 Y19.343 E0.04433
M73 P15 R2
G1 X-19.343 Y14.659 E0.40153
G1 X-19.343 Y14.062 E0.02559
G1 X-10.196 Y19.343 E0.45271
G1 X-9.162 Y19.343 E0.04433
G1 X-19.343 Y13.465 E0.5039
G1 X-19.343 Y12.868 E0.02559
G1 X-8.128 Y19.343 E0.55508
G1 X-7.094 Y19.343 E0.04433
G1 X-19.343 Y12.271 E0.60627
M73 P16 R2
G1 X-19.343 Y11.674 E0.02559
G1 X-6.059 Y19.343 E0.65746
G1 X-5.025 Y19.343 E0.04433
G1 X-19.343 Y11.076 E0.70864
M73 P17 R2
G1 X-19.343 Y10.479 E0.02559
M73 P18 R2
G1 X-3.991 Y19.343 E0.75983
M73 P19 R2
G1 X-2.957 Y19.343 E0.04433
M73 P20 R2
G1 X-19.343 Y9.882 E0.81101
G1 X-19.343 Y9.285 E0.02559
G1 X-1.923 Y19.343 E0.8622
G1 X-0.889 Y19.343 E0.04433
G1 X-19.343 Y8.688 E0.91339
G1 X-19.343 Y8.091 E0.02559
G1 X0.146 Y19.343 E0.96457
G1 X1.18 Y19.343 E0.04433
G1 X-19.343 Y7.494 E1.01576
G1 X-19.343 Y6.897 E0.02559
G1 X2.214 Y19.343 E1.06695
G1 X3.248 Y19.343 E0.04433
G1 X-19.343 Y6.3 E1.11813
G1 X-19.343 Y5.703 E0.02559
G1 X4.282 Y19.343 E1.16932
M73 P21 R2
G1 X5.316 Y19.343 E0.04433
G1 X-19.343 Y5.106 E1.2205
G1 X-19.343 Y4.509 E0.02559
G1 X6.35 Y19.343 E1.27169
G1 X7.385 Y19.343 E0.04433
G1 X-19.343 Y3.912 E1.32288
G1 X-19.343 Y3.315 E0.02559
G1 X8.419 Y19.343 E1.37406
M73 P22 R2
G1 X9.453 Y19.343 E0.04433
G1 X-19.343 Y2.717 E1.42525
G1 X-19.343 Y2.12 E0.02559
G1 X10.487 Y19.343 E1.47644
G1 X11.521 Y19.343 E0.04433
G1 X-19.343 Y1.523 E1.52762
M73 P23 R2
G1 X-19.343 Y0.926 E0.02559
G1 X12.555 Y19.343 E1.57881
G1 X13.59 Y19.343 E0.04433
G1 X-19.343 Y0.329 E1.62999
M73 P24 R2
G1 X-19.343 Y-0.268 E0.02559
G1 X14.624 Y19.343 E1.68118
G1 X15.658 Y19.343 E0.04433
G1 X-19.343 Y-0.865 E1.73237
M73 P25 R2
G1 X-19.343 Y-1.462 E0.02559
G1 X16.692 Y19.343 E1.78355
G1 X17.726 Y19.343 E0.04433
G1 X-19.343 Y-2.059 E1.83474
M73 P26 R2
G1 X-19.343 Y-2.656 E0.02559
G1 X18.76 Y19.343 E1.88593
G1 X19.343 Y19.343 E0.02495
G1 X19.343 Y19.082 E0.01119
M73 P27 R2
G1 X-19.343 Y-3.253 E1.91474
G1 X-19.343 Y-3.85 E0.02559
M73 P28 R2
G1 X19.343 Y18.485 E1.91474
G1 X19.343 Y17.887 E0.02559
G1 X-19.343 Y-4.447 E1.91474
G1 X-19.343 Y-5.044 E0.02559
M73 P29 R2
G1 X19.343 Y17.29 E1.91474
G1 X19.343 Y16.693 E0.02559
M73 P30 R2
G1 X-19.343 Y-5.642 E1.91474
G1 X-19.343 Y-6.239 E0.02559
M73 P31 R2
G1 X19.343 Y16.096 E1.91474
G1 X19.343 Y15.499 E0.02559
G1 X-19.343 Y-6.836 E1.91474
G1 X-19.343 Y-7.433 E0.02559
M73 P32 R2
G1 X19.343 Y14.902 E1.91474
G1 X19.343 Y14.305 E0.02559
M73 P33 R2
G1 X-19.343 Y-8.03 E1.91474
G1 X-19.343 Y-8.627 E0.02559
M73 P34 R2
G1 X19.343 Y13.708 E1.91474
G1 X19.343 Y13.111 E0.02559
M73 P35 R2
G1 X-19.343 Y-9.224 E1.91474
G1 X-19.343 Y-9.821 E0.02559
M73 P36 R2
G1 X19.343 Y12.514 E1.91474
G1 X19.343 Y11.917 E0.02559
M73 P37 R2
G1 X-19.343 Y-10.418 E1.91474
G1 X-19.343 Y-11.015 E0.02559
M73 P38 R2
G1 X19.343 Y11.32 E1.91474
G1 X19.343 Y10.723 E0.02559
M73 P39 R2
G1 X-19.343 Y-11.612 E1.91474
G1 X-19.343 Y-12.209 E0.02559
M73 P40 R2
G1 X19.343 Y10.126 E1.91474
G1 X19.343 Y9.528 E0.02559
M73 P41 R2
G1 X-19.343 Y-12.806 E1.91474
G1 X-19.343 Y-13.403 E0.02559
G1 X19.343 Y8.931 E1.91474
M73 P42 R2
G1 X19.343 Y8.334 E0.02559
G1 X-19.343 Y-14.001 E1.91474
M73 P43 R2
G1 X-19.343 Y-14.598 E0.02559
G1 X19.343 Y7.737 E1.91474
M73 P44 R2
G1 X19.343 Y7.14 E0.02559
G1 X-19.343 Y-15.195 E1.91474
M73 P45 R1
G1 X-19.343 Y-15.792 E0.02559
G1 X19.343 Y6.543 E1.91474
M73 P47 R1
G1 X19.343 Y5.946 E0.02559
G1 X-19.343 Y-16.389 E1.91474
M73 P48 R1
G1 X-19.343 Y-16.986 E0.02559
G1 X19.343 Y5.349 E1.91474
M73 P49 R1
G1 X19.343 Y4.752 E0.02559
G1 X-19.343 Y-17.583 E1.91474
M73 P50 R1
G1 X-19.343 Y-18.18 E0.02559
G1 X19.343 Y4.155 E1.91474
M73 P51 R1
G1 X19.343 Y3.558 E0.02559
G1 X-19.343 Y-18.777 E1.91474
M73 P52 R1
G1 X-19.343 Y-19.343 E0.02424
G1 X-19.288 Y-19.343 E0.00235
M73 P53 R1
G1 X19.343 Y2.961 E1.91203
G1 X19.343 Y2.364 E0.02559
M73 P54 R1
G1 X-18.254 Y-19.343 E1.86084
G1 X-17.219 Y-19.343 E0.04433
M73 P55 R1
G1 X19.343 Y1.767 E1.80966
G1 X19.343 Y1.169 E0.02559
M73 P57 R1
G1 X-16.185 Y-19.343 E1.75847
G1 X-15.151 Y-19.343 E0.04433
M73 P58 R1
G1 X19.343 Y0.572 E1.70728
G1 X19.343 Y-0.025 E0.02559
M73 P59 R1
G1 X-14.117 Y-19.343 E1.6561
G1 X-13.083 Y-19.343 E0.04433
M73 P60 R1
G1 X19.343 Y-0.622 E1.60491
G1 X19.343 Y-1.219 E0.02559
M73 P61 R1
G1 X-12.049 Y-19.343 E1.55372
G1 X-11.014 Y-19.343 E0.04433
M73 P62 R1
G1 X19.343 Y-1.816 E1.50254
G1 X19.343 Y-2.413 E0.02559
M73 P63 R1
G1 X-9.98 Y-19.343 E1.45135
G1 X-8.946 Y-19.343 E0.04433
M73 P64 R1
G1 X19.343 Y-3.01 E1.40017
G1 X19.343 Y-3.607 E0.02559
M73 P65 R1
G1 X-7.912 Y-19.343 E1.34898
G1 X-6.878 Y-19.343 E0.04433
M73 P67 R1
G1 X19.343 Y-4.204 E1.29779
G1 X19.343 Y-4.801 E0.02559
M73 P68 R1
G1 X-5.844 Y-19.343 E1.24661
G1 X-4.81 Y-19.343 E0.04433
M73 P69 R1
G1 X19.343 Y-5.398 E1.19542
G1 X19.343 Y-5.995 E0.02559
M73 P70 R1
G1 X-3.775 Y-19.343 E1.14424
G1 X-2.741 Y-19.343 E0.04433
M73 P71 R1
G1 X19.343 Y-6.592 E1.09305
G1 X19.343 Y-7.19 E0.02559
G1 X-1.707 Y-19.343 E1.04186
M73 P72 R1
G1 X-0.673 Y-19.343 E0.04433
G1 X19.343 Y-7.787 E0.99068
M73 P73 R1
G1 X19.343 Y-8.384 E0.02559
G1 X0.361 Y-19.343 E0.93949
M73 P74 R1
G1 X1.395 Y-19.343 E0.04433
G1 X19.343 Y-8.981 E0.8883
M73 P75 R1
G1 X19.343 Y-9.578 E0.02559
G1 X2.43 Y-19.343 E0.83712
M73 P76 R1
G1 X3.464 Y-19.343 E0.04433
G1 X19.343 Y-10.175 E0.78593
M73 P77 R1
G1 X19.343 Y-10.772 E0.02559
G1 X4.498 Y-19.343 E0.73475
M73 P78 R1
G1 X5.532 Y-19.343 E0.04433
G1 X19.343 Y-11.369 E0.68356
M73 P79 R1
G1 X19.343 Y-11.966 E0.02559
G1 X6.566 Y-19.343 E0.63237
M73 P80 R1
G1 X7.6 Y-19.343 E0.04433
G1 X19.343 Y-12.563 E0.58119
M73 P81 R1
G1 X19.343 Y-13.16 E0.02559
G1 X8.635 Y-19.343 E0.53
M73 P82 R0
G1 X9.669 Y-19.343 E0.04433
G1 X19.343 Y-13.757 E0.47881
G1 X19.343 Y-14.354 E0.02559
G1 X10.703 Y-19.343 E0.42763
M73 P83 R0
G1 X11.737 Y-19.343 E0.04433
G1 X19.343 Y-14.951 E0.37644
M73 P84 R0
G1 X19.343 Y-15.549 E0.02559
G1 X12.771 Y-19.343 E0.32526
M73 P85 R0
G1 X13.805 Y-19.343 E0.04433
G1 X19.343 Y-16.146 E0.27407
G1 X19.343 Y-16.743 E0.02559
G1 X14.839 Y-19.343 E0.22288
M73 P86 R0
G1 X15.874 Y-19.343 E0.04433
G1 X19.343 Y-17.34 E0.1717
G1 X19.343 Y-17.937 E0.02559
M73 P87 R0
G1 X16.908 Y-19.343 E0.12051
G1 X17.942 Y-19.343 E0.04433
G1 X19.343 Y-18.534 E0.06932
M73 P88 R0
G1 X19.343 Y-19.131 E0.02559
G1 X18.591 Y-19.565 E0.0372
G10 ; retract
;TYPE:Custom
; printing object ENDGCODE
G92 E0.0 ; prepare to retract
G1 E-1 F3000; retract to avoid stringing
; Anti-stringing end wiggle
G1 Z100.2 F4000 ; Move print head up
M73 P89 R0
G1 X0 Y120 F3000 ; present print
; Reset print setting overrides
G92 E0
M220 S100 ; reset speed factor to 100%
; Shut down printer
M104 S0 ; turn off temperature
M140 S0 ; turn off heatbed
M107 ; turn off fan
M18 S180 ;disable motors after 180s
Super_racer ;reset to super racer defaults 
M117 Print finish.
M73 P100 R0
; filament used [mm] = 150.06
; filament used [cm3] = 0.36
; filament used [g] = 0.45
; filament cost = 0.01
; total filament used [g] = 0.45
; total filament cost = 0.01
; total layers count = 1
; estimated printing time (normal mode) = 2m 43s

; allow_empty_layers = 0
; avoid_crossing_not_first_layer = 1
; avoid_crossing_perimeters = 1
; avoid_crossing_perimeters_max_detour = 8
; bed_custom_model = 
; bed_custom_texture = 
; bed_shape = 129.505x11.3302,128.025x22.5743,125.57x33.6465,122.16x44.4626,117.82x54.9404,112.583x65,106.49x74.5649,99.5858x83.5624,91.9239x91.9239,83.5624x99.5858,74.5649x106.49,65x112.583,54.9404x117.82,44.4626x122.16,33.6465x125.57,22.5743x128.025,11.3302x129.505,7.9602e-15x130,-11.3302x129.505,-22.5743x128.025,-33.6465x125.57,-44.4626x122.16,-54.9404x117.82,-65x112.583,-74.5649x106.49,-83.5624x99.5858,-91.9239x91.9239,-99.5858x83.5624,-106.49x74.5649,-112.583x65,-117.82x54.9404,-122.16x44.4626,-125.57x33.6465,-128.025x22.5743,-129.505x11.3302,-130x1.59204e-14,-129.505x-11.3302,-128.025x-22.5743,-125.57x-33.6465,-122.16x-44.4626,-117.82x-54.9404,-112.583x-65,-106.49x-74.5649,-99.5858x-83.5624,-91.9239x-91.9239,-83.5624x-99.5858,-74.5649x-106.49,-65x-112.583,-54.9404x-117.82,-44.4626x-122.16,-33.6465x-125.57,-22.5743x-128.025,-11.3302x-129.505,-2.38806e-14x-130,11.3302x-129.505,22.5743x-128.025,33.6465x-125.57,44.4626x-122.16,54.9404x-117.82,65x-112.583,74.5649x-106.49,83.5624x-99.5858,91.9239x-91.9239,99.5858x-83.5624,106.49x-74.5649,112.583x-65,117.82x-54.9404,122.16x-44.4626,125.57x-33.6465,128.025x-22.5743,129.505x-11.3302,130x-3.18408e-14
; bed_temperature = 65
; before_layer_gcode = G92 E0 ;reset extrusion distance
; between_objects_gcode = 
; bottom_fill_pattern = monotonic
; bottom_solid_layers = 3
; bottom_solid_min_thickness = 0.8
; bridge_acceleration = 1000
; bridge_angle = 0
; bridge_fan_speed = 100
; bridge_flow_ratio = 100%
; bridge_internal_fan_speed = -1
; bridge_overlap = 90%
; bridge_overlap_min = 80%
; bridge_speed = 60
; bridge_speed_internal = 150%
; bridged_infill_margin = 200%
; brim_ears = 0
; brim_ears_detection_length = 1
; brim_ears_max_angle = 125
; brim_ears_pattern = concentric
; brim_inside_holes = 0
; brim_offset = 0
; brim_width = 0
; brim_width_interior = 0
; chamber_temperature = 15
; clip_multipart_objects = 1
; color_change_gcode = M600
; complete_objects = 0
; complete_objects_one_brim = 0
; complete_objects_one_skirt = 0
; complete_objects_sort = object
; cooling = 1
; cooling_tube_length = 5
; cooling_tube_retraction = 91.5
; curve_smoothing_angle_concave = 0
; curve_smoothing_angle_convex = 0
; curve_smoothing_cutoff_dist = 2
; curve_smoothing_precision = 0
; default_acceleration = 3700
; default_filament_profile = 
; default_print_profile = 
; deretract_speed = 0
; disable_fan_first_layers = 1
; dont_support_bridges = 1
; draft_shield = 0
; duplicate_distance = 6
; end_filament_gcode = ""
; end_gcode = ; printing object ENDGCODE\nG92 E0.0 ; prepare to retract\nG1 E-1 F3000; retract to avoid stringing\n; Anti-stringing end wiggle\n{if layer_z < max_print_height}G1 Z{min(layer_z+100, max_print_height)}{endif} F4000 ; Move print head up\nG1 X0 Y120 F3000 ; present print\n; Reset print setting overrides\nG92 E0\nM220 S100 ; reset speed factor to 100%\n; Shut down printer\nM104 S0 ; turn off temperature\nM140 S0 ; turn off heatbed\nM107 ; turn off fan\nM18 S180 ;disable motors after 180s\nSuper_racer ;reset to super racer defaults \nM117 Print finish.\n
; enforce_full_fill_volume = 1
; ensure_vertical_shell_thickness = 0
; exact_last_layer_height = 0
; external_infill_margin = 150%
; external_perimeter_cut_corners = 0%
; external_perimeter_extrusion_spacing = 
; external_perimeter_extrusion_width = 0.45
; external_perimeter_fan_speed = -1
; external_perimeter_overlap = 100%
; external_perimeter_speed = 50%
; external_perimeters_first = 0
; external_perimeters_hole = 1
; external_perimeters_nothole = 1
; external_perimeters_vase = 0
; extra_loading_move = -2
; extra_perimeters = 1
; extra_perimeters_odd_layers = 0
; extra_perimeters_overhangs = 0
; extruder_clearance_height = 20
; extruder_clearance_radius = 20
; extruder_colour = ""
; extruder_fan_offset = 0%
; extruder_offset = 0x0
; extruder_temperature_offset = 0
; extrusion_axis = E
